**kern
*staff1
*I"Piano
=1- 	=1-
*clefG2
*k[f#]
*G:
*M4/4
1r
=2 	=2
1r
=3 	=3
1r
=4 	=4
1r
=5 	=5
1r
=6 	=6
1r
=7 	=7
1r
=8 	=8
2r
4r
8b\L
8cc\J
=9|| 	=9||
8dd\L
8ee\
8b\
8cc\J
4dd\
4r
=10 	=10
!!linebreak:original
8r
8b/L
8f#/
8e/J
8a/L
8f#/
8g/
8a/J
=11 	=11
8b-/L
8d/
8g/
8b-/J
8a/L
8g#/
8gn/
8fn/J
=12 	=12
4e/
8B-/L
[8d/J
8d/L]
8d-/
8c/
8B-/J
=13 	=13
!!linebreak:original
8A/
8r
8g/L
8e/J
8fn/
4.cc\
=14 	=14
2r
4r
8r
[8cc\
=15 	=15
4cc\]
8a/L
8g/J
8a-\L
8cc\
8ee-\
8gg\J
=16 	=16
ff#q/
8ee\
8r
8ee-\L
8cc#\J
8dd\L
8ccn\
8b\
8a\J
=17 	=17
!!linebreak:original
8b-/L
8g/J
4d/
8fn/
4e-/
[8a/
=18 	=18
8a/L]
8g/
8f#/
8a/J
8cc\L
8ee-\
8dd\J
8r
=19 	=19
8cc/L
8b-/
8g/J
8r
4a/
8e/L
[8d/J
=20 	=20
4d/]
4r
4r
12b\L
12dd\
12ff#\J
=21 	=21
!!linebreak:original
8aa\
4gg\
8b\
8ff#\
4dd\
8b\
=22 	=22
8dd\
4cc\
[8a/
8a/]
8r
8b\
8r
=23 	=23
4b\
8f#/L
8b/J
8b-\
4fn/
[8e/
=24 	=24
8e/]
4.a/
8a-/
4e-/
[8d/
=25 	=25
!!linebreak:original
4d/]
8dd\L
[8b\J
4b\]
4r
=26 	=26
4r
4d/
8dd\
4b\
[8d/
=27 	=27
4.d/]
16dd\LL
[16b-\JJ
4b-\]
4r
=28 	=28
1r
=29 	=29
2r
4.c/
[8cc\
=30 	=30
8cc\]
4.a/
2r
=31 	=31
!!linebreak:original
2r
4r
8.c/L
16cc/Jk
=32 	=32
8b-/L
8a-/
8g/
8fn/J
8e/
8r
8f/L
8d/J
=33 	=33
8e-/
8r
12f#/L
12g/
12dd/J
8ffn\L
8ee\
8ee-\
8dd\J
=34 	=34
!!linebreak:original
16cc\LL
16dd\
16cc\
16b-\JJ
8a/L
8g/J
8f#/L
8e/
8d/J
8r
=35 	=35
4cc\
8r
[8b\
8b\]
8r
4r
=36 	=36
1r
=37 	=37
[4aa\
16aa\LL]
16ff#\
16ee\
16dd\JJ
8cc#\
[4.ffn\
=38 	=38
!!pagebreak:original
16ff\LL]
16ee\
24dd\
24ee\
24dd\JJ
8.a/L
16g/Jk
8a-/L
8b-/
8a-/J
8r
=39 	=39
8g/
8r
8g/L
[8e/J
8e/]
8r
4r
=40 	=40
2r
4r
4dd\
=41|| 	=41||
8.gg\L
16gg\Jk
8ff#\
8r
8gg\
4aa\
[8bb\
=42 	=42
!!linebreak:original
4bb\]
8r
8dd\
8gg\L
8aa\
8bb-\
8aa\J
=43 	=43
8gg\L
8ffn\
8ee\
8dd\J
8cc\L
8b-\J
8r
8fn/
=44 	=44
4a/
8a/L
[8a-/J
4a-/]
8ee-\L
8dd-\J
=45 	=45
!!linebreak:original
8cc/L
8a/
8e/J
8r
8g/L
8e/
8fn/
[8cc/J
=46 	=46
4cc\]
4r
2r
=47 	=47
8ccc\L
8eee-\J
16ddd\LK
8bb-\
16bb-\Jk
16ccc\LL
16ccc\
16bbn\
16bb-\JJ
16aa-\LL
16gg\
16bb-\
16aa-\JJ
=48 	=48
!!linebreak:original
16gg\LL
16ffn\
24ee\
24ff\
24gg\JJ
16ff\LL
16dd\
32ee-\L
32ff\
32ee-\
32cc#\JJJ
16dd\LL
16b-\
16a-\
16ccn\JJ
16g/LL
16fn/
16b-/
16g/JJ
=49 	=49
!!linebreak:original
16fn/LL
16e-/
32en/L
32g-/
32e/
32d/JJJ
16e-/LL
16en/
16f/
16e-/JJ
12f/L
12gn/
12b/J
8cc\L
(8dd\J
=50 	=50
4dd\)
(eeq/
8ffn\L)
8dd\J
24cc\LL
24dd\
24cc\J
8b-\J
4a/
=51 	=51
!!linebreak:original
8b-/L
8g/J
4.a/
8r
8g/L
8e/J
=52 	=52
8d/L
[8e/
8e/J]
8r
2r
=53 	=53
2r
8bb\
4ddd\
[8ccc\
=54 	=54
8ccc\]
4cc#\
8dd\
8bb\L
8bb-\
8aa\
8aa-\J
=55 	=55
!!linebreak:original
8gg\L
16gg\L
16ff#\JJ
8ee\
8r
8ffn\
[4b-\
16b-/LL]
16g#/JJ
=56 	=56
8a/
4ee\
8r
8ee-\
4a-/
8r
=57 	=57
8g/
8r
8dd\L
[8b\J
4b\]
8f#/L
8e/J
=58 	=58
8a/L
[8g/
8g/J]
8r
2r
=59 	=59
!!linebreak:original
2r
8g\L
8b-\
8dd\
8gg\J
=60 	=60
8ff#\L
8ffn\
8ee\J
8r
8b-\L
8dd\
8cc\
8b-\J
=61 	=61
12a\L
12cc\
12gg\J
8gg\L
8ee\J
8ffn\
4ccc\
8r
=62 	=62
1r
=63 	=63
!!pagebreak:original
16ccc\LL
16bb\
16bb-\
16aa\JJ
16aa-\LK
8.ccc\J
2r
=64 	=64
16ccc\LL
16ccc\
16bb-\
16aa-\JJ
16gg\LL
16ffn\
16ee-\
16dd\JJ
16ff\LL
16ee-\
16dd\
16cc\JJ
16b/LL
16b-/J
8a-/J
=65 	=65
!!linebreak:original
16b-/LL
16a-/
16g/
16fn/JJ
8e-/L
16f/L
16d/JJ
24e-/LL
24en/
24f/
24f#/
24g/
24a-/JJ
24an\LL
24b-\
24bn\
24cc\
24cc#\
24dd\JJ
=66 	=66
!!linebreak:original
16ee-\LL
16dd\
16cc\
16b-\JJ
16a/LL
16g/
16f#/
16a/JJ
16dd\LK
8ee-\
[16dd\Jk
16dd\LK]
8cc\
[16bn\Jk
=67 	=67
16b\LL]
16dd\J
8ff#\J
16aa\LL
16gg\JJ
8r
4r
8r
[8ffn\
=68 	=68
!!linebreak:original
4ff\]
16ee-\LL
16ffn\
16ee-\
16b-\JJ
8a/
8r
4r
=69 	=69
4r
8aa\L
8ddd\J
8ddd-\L
8ccc\
8bb-\
8gg#\J
=70 	=70
8aa\L
8ee\
8cc\
8cc\J
8a-/L
8b-/
8a-/J
8r
=71 	=71
!!linebreak:original
8g/
8r
8dd\L
8b\J
8f#/
8r
8.a/L
16f#/Jk
=72 	=72
8g/
8r
4r
4r
8r
8dd\
=73|| 	=73||
8gg\L
8gg\
8ff#\J
8r
8gg\L
8dd\J
4r
=74 	=74
8.r
16dd\
8.ff#\L
16gg\Jk
8.aa\L
16ff#\Jk
8.gg\L
16aa\Jk
=75 	=75
!!linebreak:original
8bb-\
8r
8gg\L
8bb-\J
8aa\L
8aa-\
8gg\
8ffn\J
=76 	=76
4ee\
8g/L
8b-/J
8dd\L
8cc#\J
8a/
16r
[16ccn\
=77 	=77
4.cc\]
8a/
4e/
8g/L
8e/J
=78 	=78
8fn/
4.cc\
4r
8r
8c/
=79 	=79
!!linebreak:original
8fn/L
8a-/
8g/
8f/J
12e/L
12a-/
12cc/J
8ee\L
8ee\J
=80 	=80
8ee-\L
8cc\
8a-\
8fn\J
16cc#\LL
16dd\
16cc#\
16ccn\JJ
8b/L
8an/J
=81 	=81
8b-/L
8g/
8d/J
8r
8fn/L
8d/
8e-/
[8a/J
=82 	=82
!!linebreak:original
4a/]
4r
4r
8.r
16dd\
=83 	=83
24ee\LL
24ffn\
24ee\J
8dd\J
24ee\LL
24ff\
24ee\J
8dd\J
32ee\LLL
32ff\J
16ee~\
16.ee~\
32dd\JJk
24ee\LL
24ff\
24ee\J
8dd\J
=84 	=84
!!pagebreak:original
24ee\LL
24ffn\
24ee\J
8dd\J
24ee\LL
24ff\
24ee\J
8dd\J
24ee\LL
24ff\
24ee\J
8dd\J
24ee\LL
24ff\
24ee\J
8dd\J
=85 	=85
24ee\LL
24ffn\
24ee\J
8dd\J
8b\L
8cc\J
4dd\
4r
=86 	=86
2r
8aa\L
8bb\
8ccc\
8ccc#\J
=87 	=87
!!linebreak:original
8ddd\
4bb\
8aa\
8aa-\L
8ffn\
8ee\
8dd\J
=88 	=88
8cc\
8r
8a\L
8cc\J
8b/L
8a/
8a-/
8f#/J
=89 	=89
4g/
8dd\L
[8b\J
4b\]
4r
=90 	=90
8r
8b\L
8dd\
8ff#\J
4aa\
8aa-\L
[8gg\J
=91 	=91
!!linebreak:original
4.gg\]
8ff#\
4r
8ffn\L
8ee\J
=92 	=92
8dd\
8r
8b-\L
8dd\J
8cc#/L
8a-/
8e/J
8r
=93 	=93
8cc/L
8a/
8e/J
8r
8g/L
8e/
8fn/
[8cc/J
=94 	=94
4cc\]
4r
2r
=95 	=95
!!linebreak:original
4r
16ffn\LL
16gg\
16aa-\
16bb-\JJ
16ccc\LL
16bb-\
16aa-\
16gg\JJ
16bb-\LL
16aa-\
16gg\
16ff\JJ
=96 	=96
!!linebreak:original
16ee\LL
16ffn\
24gg\
24ff\
24dd\JJ
32ee-\LLL
32ff\
32ee-\
32cc#\J
16dd\
16g\JJ
16a-/LL
16ccn/
16g/
16a-/JJ
16b-/LL
16a-/
16g/
16fn/JJ
=97 	=97
!!linebreak:original
16e-/
16r
16fn/LL
16d/JJ
16e-/LL
16f/
16g/
16a/JJ
16cc\LL
16dd\
16ee-\
16dd\JJ
16cc\LL
16b-\
16a\
16b-\JJ
=98 	=98
8a/
4g/
8a-/
8cc\L
8ee-\
8dd\
8cc\J
=99 	=99
!!linebreak:original
8b\
8r
8a/L
[8g/J
4g/]
8fn/L
[8e-/J
=100 	=100
4e-/]
4r
4r
8r
g#q/
8a/
=101 	=101
8dd\L
8gg\
8ff#\
8dd-\J
8ee-\L
8ffn\J
8r
[8cc\
=102 	=102
!!linebreak:original
8cc\L]
8dd\
8ee\
8b-\J
8cc\L
8dd\
8b-\J
8r
=103 	=103
8a/
8r
16g/LL
16a/
16g/
16e/JJ
8e-/
8r
8d/L
8en/J
=104 	=104
8g/L
8a/
8a#/
8b/J
8cc/L
8a#/
8b/
[8g/J
=105|| 	=105||
!!pagebreak:original
8g/]
8r
8g/L
8a/J
8b\
8r
8cc\L
[8dd\J
=106 	=106
8dd\L]
[8b\
8b\J]
8r
4r
8r
8d/
=107 	=107
4g/
8g/L
8a/J
8b-\
8r
8cc\L
[8dd\J
=108 	=108
8dd\]
4b-\
8r
8dd-\L
8b-\
8g-\J
8r
=109 	=109
!!linebreak:original
8cc/L
8a/
8e/J
8r
8g/L
8e/
8fn/
[8cc/J
=110 	=110
8cc\]
4.a/
2r
=111 	=111
8.r
16c/
8fn/L
8a-/J
8g/L
8f/
8e/J
8r
=112 	=112
8d/L
8fn/
8a-/
8cc/J
8g/L
8f/
8e/J
8r
=113 	=113
!!linebreak:original
8cc/L
8a-/
8g/J
8r
8b-\
4g/
[8cc\
=114 	=114
8cc/L]
8b-/
8a/
8g/J
12f#/L
12a/
12cc/J
8ee-\L
[8dd\J
=115 	=115
8dd\]
4.b\
2r
=116 	=116
2r
4r
8bb\
8r
=117 	=117
2ddd\
4aa\
8ddd\L
[8ddd-\J
=118 	=118
!!linebreak:original
8ddd-\]
4ccc\
8r
8bb\L
8aa\
8gg\
8ff#\J
=119 	=119
8ee\L
8dd\
8cc\
8b\J
8a/L
8g/
8a-/
8b-/J
=120 	=120
8fn/L
8d-/
8e-/
[8f/J
4f/]
8e-/L
8c#/J
=121 	=121
!!linebreak:original
8d/L
8e/
8f#/
8g/J
8a/
8r
8g/L
8b-/J
=122 	=122
16ee\LL
16ffn\
16ee\
16dd\JJ
8cc\L
8b\J
8dd\L
8cc\
8b\
8a\J
=123 	=123
8g#/
8r
8d/L
8fn/J
8e/L
8a/
8cc/
[8a/J
=124 	=124
1a]
=125 	=125
!!linebreak:original
24cc\LL
24dd\
24cc\
16a\
16g\JJ
8a-/L
[8b-/J
4b-\]
24a-/LL
24b-/
24a-/J
8f#/J
=126 	=126
2.g/
4r
== 	==
*-
